svg/fluentui-system-icons/ic_fluent_column_triple_edit_20_regular.svg

<svg width="20" height="20" viewBox="0 0 20 20" fill="none" xmlns="http://www.w3.org/2000/svg">
<path d="M3 4C3 3.44772 3.44771 3 4 3H6C6.55228 3 7 3.44772 7 4V16C7 16.5523 6.55229 17 6 17H4C3.44772 17 3 16.5523 3 16V4ZM6 4L4 4V16H6V4ZM8 4C8 3.44772 8.44771 3 9 3H11C11.5523 3 12 3.44772 12 4V12.9427L11 13.9427V4L9 4V16H9.47466C9.45904 16.0513 9.44469 16.1031 9.43163 16.1554L9.22047 17H9C8.44772 17 8 16.5523 8 16V4ZM17 4V9.00299C16.6586 9.01856 16.3194 9.09477 16 9.23163V4L14 4V10.9427L13 11.9427V4C13 3.44772 13.4477 3 14 3H16C16.5523 3 17 3.44772 17 4ZM10.9798 15.3772L15.8092 10.5478C16.5395 9.81741 17.7237 9.81741 18.454 10.5478C19.1843 11.2781 19.1843 12.4622 18.454 13.1926L13.6246 18.022C13.343 18.3036 12.9902 18.5033 12.6039 18.5999L11.106 18.9744C10.4546 19.1372 9.86451 18.5472 10.0274 17.8958L10.4018 16.3979C10.4984 16.0116 10.6982 15.6588 10.9798 15.3772Z" fill="#212121"/>
</svg>

<svg xmlns="http://www.w3.org/2000/svg" width="20" height="20"><path d="M3 4a1 1 0 0 1 1-1h2a1 1 0 0 1 1 1v12a1 1 0 0 1-1 1H4a1 1 0 0 1-1-1V4Zm3 0H4v12h2V4Zm2 0a1 1 0 0 1 1-1h2a1 1 0 0 1 1 1v8.943l-1 1V4H9v12h.475a3.17 3.17 0 0 0-.043.155L9.22 17H9a1 1 0 0 1-1-1V4Zm9 0v5.003c-.341.016-.68.092-1 .229V4h-2v6.943l-1 1V4a1 1 0 0 1 1-1h2a1 1 0 0 1 1 1Zm-6.02 11.377 4.83-4.83a1.87 1.87 0 1 1 2.644 2.646l-4.83 4.829a2.197 2.197 0 0 1-1.02.578l-1.498.374a.89.89 0 0 1-1.079-1.078l.375-1.498a2.18 2.18 0 0 1 .578-1.02Z"/></svg>
